images/pig-scheme/vyrezka.svg

<svg width="272" height="69" viewBox="0 0 272 69" fill="none" xmlns="http://www.w3.org/2000/svg">
<path d="M251.28 26.7698C250.49 27.2698 249.68 27.7798 248.83 28.2898C238.6 34.5098 226.35 40.4698 212.89 45.8198C209.9 47.0098 206.86 48.1698 203.76 49.2898C196.34 51.9798 188.62 54.4798 180.75 56.7398C179.04 57.2298 177.31 57.6998 175.56 58.1498C173.11 58.7898 170.63 59.3798 168.11 59.9398C160.51 61.6398 152.62 63.0198 144.59 64.1198C142.44 64.4198 140.27 64.6898 138.1 64.9498C131.06 65.7898 123.92 66.4398 116.79 66.9198C114.78 67.0498 112.77 67.1798 110.76 67.2898C104.02 67.6598 97.31 67.8898 90.7 68.0098C88.77 68.0498 86.85 68.0798 84.95 68.0998C78.39 68.1598 71.95 68.1298 65.7 68.0098C63.83 67.9798 61.99 67.9398 60.16 67.8898C53.67 67.7298 47.42 67.4998 41.49 67.2198C39.66 67.1298 37.86 67.0398 36.09 66.9598C29.51 66.6098 23.39 66.2198 17.86 65.8498C16.03 65.7198 14.26 65.5998 12.57 65.4798C9.48999 65.2498 6.65 65.0398 4.06 64.8498L0 64.5398C0.26 62.3598 0.51 60.1698 0.75 57.9598C0.99 55.8498 1.22 53.7398 1.45 51.5998C1.66 49.5898 1.86999 47.5698 2.07999 45.5298L2.87999 37.5898C3.10999 35.1198 3.33999 32.6398 3.54999 30.1598C3.72999 28.1098 3.89999 26.0498 4.06999 23.9798C4.47999 18.7598 4.82999 13.5198 5.10999 8.27982C9.63999 8.61982 14.23 8.9198 18.88 9.1698C20.66 9.2798 22.45 9.36981 24.25 9.45981C30.39 9.74981 36.62 9.97982 42.92 10.1298C44.76 10.1898 46.6 10.2298 48.45 10.2598C54.77 10.3998 61.15 10.4598 67.59 10.4598C68.09 10.4698 68.59 10.4698 69.09 10.4698C70.47 10.4698 71.86 10.4698 73.25 10.4598C79.73 10.4398 86.26 10.3598 92.82 10.2298C94.75 10.1898 96.68 10.1498 98.61 10.0998C105.24 9.93983 111.9 9.7398 118.57 9.4798C120.53 9.4098 122.5 9.32982 124.46 9.24982C131.22 8.96982 138 8.64983 144.76 8.28983C146.76 8.17983 148.76 8.06981 150.75 7.95981C157.65 7.56981 164.53 7.13981 171.37 6.67981C173.4 6.54981 175.42 6.40981 177.44 6.26981C184.45 5.77981 191.43 5.25981 198.34 4.70981C200.39 4.55981 202.44 4.3898 204.48 4.2298C211.6 3.6498 218.65 3.04982 225.61 2.43982C227.69 2.24982 229.76 2.06982 231.83 1.87982C237.65 1.35982 243.41 0.819818 249.09 0.279818C250.48 0.139818 251.79 0.049808 253.03 0.019808C255.05 -0.040192 256.87 0.0398104 258.5 0.20981C267.53 1.17981 270.89 5.16983 271.51 6.53983C271.55 6.65983 271.59 6.74981 271.6 6.82981C271.94 8.64981 268.86 15.6298 251.28 26.7698Z" fill="#C21921"/>
<path fill-rule="evenodd" clip-rule="evenodd" d="M24.2501 9.45981L3.55005 30.1598C3.73005 28.1098 3.90005 26.0498 4.07005 23.9798L18.8801 9.1698C20.6601 9.2798 22.4501 9.36981 24.2501 9.45981Z" fill="#9E1B1E"/>
<path fill-rule="evenodd" clip-rule="evenodd" d="M48.45 10.2599L0.75 57.9599C0.99 55.8499 1.22 53.7399 1.45 51.5999L42.92 10.1299C44.76 10.1899 46.6 10.2299 48.45 10.2599Z" fill="#9E1B1E"/>
<path fill-rule="evenodd" clip-rule="evenodd" d="M73.2501 10.4598L17.8601 65.8499C16.0301 65.7199 14.2601 65.5998 12.5701 65.4798L67.5901 10.4598C68.0901 10.4698 68.5901 10.4698 69.0901 10.4698C70.4701 10.4698 71.8601 10.4698 73.2501 10.4598Z" fill="#9E1B1E"/>
<path fill-rule="evenodd" clip-rule="evenodd" d="M98.6101 10.0999L41.4901 67.2198C39.6601 67.1298 37.8601 67.0398 36.0901 66.9598L92.8201 10.2298C94.7501 10.1898 96.6801 10.1499 98.6101 10.0999Z" fill="#9E1B1E"/>
<path fill-rule="evenodd" clip-rule="evenodd" d="M124.46 9.24976L65.6999 68.0098C63.8299 67.9798 61.9899 67.9397 60.1599 67.8897L118.57 9.47974C120.53 9.40974 122.5 9.32976 124.46 9.24976Z" fill="#9E1B1E"/>
<path fill-rule="evenodd" clip-rule="evenodd" d="M150.75 7.95984L90.7 68.0099C88.77 68.0499 86.85 68.0799 84.95 68.0999L144.76 8.28986C146.76 8.17986 148.76 8.06984 150.75 7.95984Z" fill="#9E1B1E"/>
<path fill-rule="evenodd" clip-rule="evenodd" d="M177.44 6.26978L116.79 66.9198C114.78 67.0498 112.77 67.1798 110.76 67.2898L171.37 6.67978C173.4 6.54978 175.42 6.40978 177.44 6.26978Z" fill="#9E1B1E"/>
<path fill-rule="evenodd" clip-rule="evenodd" d="M204.48 4.22974L144.59 64.1198C142.44 64.4198 140.27 64.6897 138.1 64.9497L198.34 4.70975C200.39 4.55975 202.44 4.38974 204.48 4.22974Z" fill="#9E1B1E"/>
<path fill-rule="evenodd" clip-rule="evenodd" d="M231.83 1.87988L175.56 58.1499C173.11 58.7899 170.63 59.3799 168.11 59.9399L225.61 2.43988C227.69 2.24988 229.76 2.06988 231.83 1.87988Z" fill="#9E1B1E"/>
<path fill-rule="evenodd" clip-rule="evenodd" d="M258.5 0.20981L212.89 45.8198C209.9 47.0098 206.86 48.1698 203.76 49.2898L253.03 0.019808C255.05 -0.040192 256.87 0.0398104 258.5 0.20981Z" fill="#9E1B1E"/>
<path fill-rule="evenodd" clip-rule="evenodd" d="M251.28 26.7698L271.51 6.53979C271.55 6.65979 271.59 6.74977 271.6 6.82977C271.94 8.64977 268.86 15.6298 251.28 26.7698Z" fill="#9E1B1E"/>
</svg>

<svg width="272" height="69" fill="none" xmlns="http://www.w3.org/2000/svg"><path d="M251.28 26.77c-.79.5-1.6 1.01-2.45 1.52-10.23 6.22-22.48 12.18-35.94 17.53a304.27 304.27 0 01-9.13 3.47 356.08 356.08 0 01-23.01 7.45c-1.71.49-3.44.96-5.19 1.41-2.45.64-4.93 1.23-7.45 1.79-7.6 1.7-15.49 3.08-23.52 4.18-2.15.3-4.32.57-6.49.83-7.04.84-14.18 1.49-21.31 1.97-2.01.13-4.02.26-6.03.37-6.74.37-13.45.6-20.06.72-1.93.04-3.85.07-5.75.09-6.56.06-13 .03-19.25-.09-1.87-.03-3.71-.07-5.54-.12-6.49-.16-12.74-.39-18.67-.67-1.83-.09-3.63-.18-5.4-.26-6.58-.35-12.7-.74-18.23-1.11-1.83-.13-3.6-.25-5.29-.37-3.08-.23-5.92-.44-8.51-.63L0 64.54c.26-2.18.51-4.37.75-6.58.24-2.11.47-4.22.7-6.36.21-2.01.42-4.03.63-6.07l.8-7.94a1101.29 1101.29 0 001.19-13.61c.41-5.22.76-10.46 1.04-15.7 4.53.34 9.12.64 13.77.89 1.78.11 3.57.2 5.37.29 6.14.29 12.37.52 18.67.67 1.84.06 3.68.1 5.53.13 6.32.14 12.7.2 19.14.2.5.01 1 .01 1.5.01 1.38 0 2.77 0 4.16-.01a1170.817 1170.817 0 0025.36-.36c6.63-.16 13.29-.36 19.96-.62 1.96-.07 3.93-.15 5.89-.23 6.76-.28 13.54-.6 20.3-.96l5.99-.33c6.9-.39 13.78-.82 20.62-1.28 2.03-.13 4.05-.27 6.07-.41 7.01-.49 13.99-1.01 20.9-1.56 2.05-.15 4.1-.32 6.14-.48 7.12-.58 14.17-1.18 21.13-1.79 2.08-.19 4.15-.37 6.22-.56 5.82-.52 11.58-1.06 17.26-1.6 1.39-.14 2.7-.23 3.94-.26 2.02-.06 3.84.02 5.47.19 9.03.97 12.39 4.96 13.01 6.33.04.12.08.21.09.29.34 1.82-2.74 8.8-20.32 19.94z" fill="#C21921"/><path fill-rule="evenodd" clip-rule="evenodd" d="M24.25 9.46l-20.7 20.7c.18-2.05.35-4.11.52-6.18L18.88 9.17c1.78.11 3.57.2 5.37.29zm24.2.8L.75 57.96c.24-2.11.47-4.22.7-6.36l41.47-41.47c1.84.06 3.68.1 5.53.13zm24.8.2L17.86 65.85c-1.83-.13-3.6-.25-5.29-.37l55.02-55.02c.5.01 1 .01 1.5.01 1.38 0 2.77 0 4.16-.01zm25.36-.36L41.49 67.22c-1.83-.09-3.63-.18-5.4-.26l56.73-56.73c1.93-.04 3.86-.08 5.79-.13zm25.85-.85L65.7 68.01c-1.87-.03-3.71-.07-5.54-.12l58.41-58.41c1.96-.07 3.93-.15 5.89-.23zm26.29-1.29L90.7 68.01c-1.93.04-3.85.07-5.75.09l59.81-59.81 5.99-.33zm26.69-1.69l-60.65 60.65c-2.01.13-4.02.26-6.03.37l60.61-60.61c2.03-.13 4.05-.27 6.07-.41zm27.04-2.04l-59.89 59.89c-2.15.3-4.32.57-6.49.83l60.24-60.24c2.05-.15 4.1-.32 6.14-.48zm27.35-2.35l-56.27 56.27c-2.45.64-4.93 1.23-7.45 1.79l57.5-57.5c2.08-.19 4.15-.37 6.22-.56zM258.5.21l-45.61 45.61a304.27 304.27 0 01-9.13 3.47L253.03.02c2.02-.06 3.84.02 5.47.19zm-7.22 26.56l20.23-20.23c.04.12.08.21.09.29.34 1.82-2.74 8.8-20.32 19.94z" fill="#9E1B1E"/></svg>
